symbols/web/stairs/materialsymbolsrounded/stairs_wght600grad200_20px.svg

<svg xmlns="http://www.w3.org/2000/svg" height="20" width="20"><path d="M5.833 15.208h3.063v-2.77h2.146V9.667h2.146V6.875h.979q.416 0 .729-.313.312-.312.312-.729 0-.416-.312-.729-.313-.312-.729-.312h-3.063v2.77H8.958v2.771H6.812v2.792h-.979q-.416 0-.729.313-.312.312-.312.729 0 .416.312.729.313.312.729.312Zm-1.521 3.125q-1.104 0-1.874-.771-.771-.77-.771-1.874V4.312q0-1.104.771-1.874.77-.771 1.874-.771h11.376q1.104 0 1.874.771.771.77.771 1.874v11.376q0 1.104-.771 1.874-.77.771-1.874.771Zm0-2.645h11.376V4.312H4.312v11.376Zm0 0V4.312v11.376Z"/></svg>

<svg xmlns="http://www.w3.org/2000/svg" height="20" width="20"><path d="M5.833 15.208H8.896V12.438H11.042V9.667H13.188V6.875H14.167Q14.583 6.875 14.896 6.562Q15.208 6.25 15.208 5.833Q15.208 5.417 14.896 5.104Q14.583 4.792 14.167 4.792H11.104V7.562H8.958V10.333H6.812V13.125H5.833Q5.417 13.125 5.104 13.438Q4.792 13.75 4.792 14.167Q4.792 14.583 5.104 14.896Q5.417 15.208 5.833 15.208ZM4.312 18.333Q3.208 18.333 2.438 17.562Q1.667 16.792 1.667 15.688V4.312Q1.667 3.208 2.438 2.438Q3.208 1.667 4.312 1.667H15.688Q16.792 1.667 17.562 2.438Q18.333 3.208 18.333 4.312V15.688Q18.333 16.792 17.562 17.562Q16.792 18.333 15.688 18.333ZM4.312 15.688H15.688Q15.688 15.688 15.688 15.688Q15.688 15.688 15.688 15.688V4.312Q15.688 4.312 15.688 4.312Q15.688 4.312 15.688 4.312H4.312Q4.312 4.312 4.312 4.312Q4.312 4.312 4.312 4.312V15.688Q4.312 15.688 4.312 15.688Q4.312 15.688 4.312 15.688ZM4.312 15.688Q4.312 15.688 4.312 15.688Q4.312 15.688 4.312 15.688V4.312Q4.312 4.312 4.312 4.312Q4.312 4.312 4.312 4.312Q4.312 4.312 4.312 4.312Q4.312 4.312 4.312 4.312V15.688Q4.312 15.688 4.312 15.688Q4.312 15.688 4.312 15.688Z"/></svg>
